pics/geometrie/gerade.svg

<?xml version="1.0" encoding="UTF-8" standalone="no"?>
<!-- Created with Inkscape (http://www.inkscape.org/) -->

<svg
   xmlns:ns0="http://www.iki.fi/pav/software/textext/"
   xmlns:dc="http://purl.org/dc/elements/1.1/"
   xmlns:cc="http://creativecommons.org/ns#"
   xmlns:rdf="http://www.w3.org/1999/02/22-rdf-syntax-ns#"
   xmlns:svg="http://www.w3.org/2000/svg"
   xmlns="http://www.w3.org/2000/svg"
   xmlns:xlink="http://www.w3.org/1999/xlink"
   xmlns:sodipodi="http://sodipodi.sourceforge.net/DTD/sodipodi-0.dtd"
   xmlns:inkscape="http://www.inkscape.org/namespaces/inkscape"
   width="210mm"
   height="297mm"
   id="svg2"
   version="1.1"
   inkscape:version="0.48.3.1 r9886"
   sodipodi:docname="gerade.svg">
  <title
     id="title11981">Die Gerade</title>
  <sodipodi:namedview
     id="base"
     pagecolor="#ffffff"
     bordercolor="#666666"
     borderopacity="1.0"
     inkscape:pageopacity="0.0"
     inkscape:pageshadow="2"
     inkscape:zoom="0.79572449"
     inkscape:cx="360.22354"
     inkscape:cy="485.36445"
     inkscape:document-units="px"
     inkscape:current-layer="layer1"
     showgrid="false"
     inkscape:window-width="1280"
     inkscape:window-height="974"
     inkscape:window-x="0"
     inkscape:window-y="0"
     inkscape:window-maximized="1"
     showguides="true"
     inkscape:guide-bbox="true"
     inkscape:snap-nodes="true"
     inkscape:object-paths="true"
     inkscape:object-nodes="true"
     inkscape:snap-smooth-nodes="true"
     inkscape:snap-midpoints="true"
     inkscape:snap-global="false" />
  <defs
     id="defs4">
    <marker
       style="overflow:visible"
       id="Arrow2Mstart"
       refX="0.0"
       refY="0.0"
       orient="auto"
       inkscape:stockid="Arrow2Mstart">
      <path
         transform="scale(0.6) translate(0,0)"
         d="M 8.7185878,4.0337352 L -2.2072895,0.016013256 L 8.7185884,-4.0017078 C 6.9730900,-1.6296469 6.9831476,1.6157441 8.7185878,4.0337352 z "
         style="fill-rule:evenodd;stroke-width:0.62500000;stroke-linejoin:round"
         id="path10062" />
    </marker>
    <marker
       style="overflow:visible"
       id="Arrow2Sstart"
       refX="0.0"
       refY="0.0"
       orient="auto"
       inkscape:stockid="Arrow2Sstart">
      <path
         transform="scale(0.3) translate(-2.3,0)"
         d="M 8.7185878,4.0337352 L -2.2072895,0.016013256 L 8.7185884,-4.0017078 C 6.9730900,-1.6296469 6.9831476,1.6157441 8.7185878,4.0337352 z "
         style="fill-rule:evenodd;stroke-width:0.62500000;stroke-linejoin:round"
         id="path10068" />
    </marker>
    <marker
       style="overflow:visible;"
       id="Arrow2Send"
       refX="0.0"
       refY="0.0"
       orient="auto"
       inkscape:stockid="Arrow2Send">
      <path
         transform="scale(0.3) rotate(180) translate(-2.3,0)"
         d="M 8.7185878,4.0337352 L -2.2072895,0.016013256 L 8.7185884,-4.0017078 C 6.9730900,-1.6296469 6.9831476,1.6157441 8.7185878,4.0337352 z "
         style="fill-rule:evenodd;stroke-width:0.62500000;stroke-linejoin:round;"
         id="path10071" />
    </marker>
    <marker
       style="overflow:visible"
       id="StopL"
       refX="0.0"
       refY="0.0"
       orient="auto"
       inkscape:stockid="StopL">
      <path
         transform="scale(0.8)"
         style="fill:none;fill-opacity:0.75000000;fill-rule:evenodd;stroke:#000000;stroke-width:1.0pt"
         d="M 0.0,5.65 L 0.0,-5.65"
         id="path3928" />
    </marker>
    <marker
       style="overflow:visible;"
       id="Arrow1Lend"
       refX="0.0"
       refY="0.0"
       orient="auto"
       inkscape:stockid="Arrow1Lend">
      <path
         transform="scale(0.8) rotate(180) translate(12.5,0)"
         style="fill-rule:evenodd;stroke:#000000;stroke-width:1.0pt;"
         d="M 0.0,0.0 L 5.0,-5.0 L -12.5,0.0 L 5.0,5.0 L 0.0,0.0 z "
         id="path3762" />
    </marker>
    <marker
       style="overflow:visible;"
       id="Arrow2Mend"
       refX="0.0"
       refY="0.0"
       orient="auto"
       inkscape:stockid="Arrow2Mend">
      <path
         transform="scale(0.6) rotate(180) translate(0,0)"
         d="M 8.7185878,4.0337352 L -2.2072895,0.016013256 L 8.7185884,-4.0017078 C 6.9730900,-1.6296469 6.9831476,1.6157441 8.7185878,4.0337352 z "
         style="fill-rule:evenodd;stroke-width:0.62500000;stroke-linejoin:round;"
         id="path3786" />
    </marker>
  </defs>
  <metadata
     id="metadata7">
    <rdf:RDF>
      <cc:Work
         rdf:about="">
        <dc:format>image/svg+xml</dc:format>
        <dc:type
           rdf:resource="http://purl.org/dc/dcmitype/StillImage" />
        <dc:title>Die Gerade</dc:title>
        <dc:date>2013-09-08</dc:date>
        <dc:creator>
          <cc:Agent>
            <dc:title>Bernhard Grotz</dc:title>
          </cc:Agent>
        </dc:creator>
        <dc:rights>
          <cc:Agent>
            <dc:title>Bernhard Grotz</dc:title>
          </cc:Agent>
        </dc:rights>
        <dc:publisher>
          <cc:Agent>
            <dc:title>Bernhard Grotz</dc:title>
          </cc:Agent>
        </dc:publisher>
        <dc:language>de_DE</dc:language>
        <dc:subject>
          <rdf:Bag>
            <rdf:li>Mathematik</rdf:li>
            <rdf:li>Geometrie</rdf:li>
            <rdf:li>Gerade</rdf:li>
          </rdf:Bag>
        </dc:subject>
        <cc:license
           rdf:resource="http://creativecommons.org/licenses/by-nc-sa/3.0/" />
      </cc:Work>
      <cc:License
         rdf:about="http://creativecommons.org/licenses/by-nc-sa/3.0/">
        <cc:permits
           rdf:resource="http://creativecommons.org/ns#Reproduction" />
        <cc:permits
           rdf:resource="http://creativecommons.org/ns#Distribution" />
        <cc:requires
           rdf:resource="http://creativecommons.org/ns#Notice" />
        <cc:requires
           rdf:resource="http://creativecommons.org/ns#Attribution" />
        <cc:prohibits
           rdf:resource="http://creativecommons.org/ns#CommercialUse" />
        <cc:permits
           rdf:resource="http://creativecommons.org/ns#DerivativeWorks" />
        <cc:requires
           rdf:resource="http://creativecommons.org/ns#ShareAlike" />
      </cc:License>
    </rdf:RDF>
  </metadata>
  <g
     id="layer1"
     inkscape:groupmode="layer"
     inkscape:label="Ebene 1">
    <g
       ns0:text="$\\vec{c}$"
       ns0:preamble="/home/waldgeist/data/sphinx/inkscape-preamble.tex"
       transform="matrix(3.3737494,0,0,3.3737494,-254.33287,-175.74676)"
       id="g4492">
      <defs
         id="defs4494">
        <g
           id="g4496">
          <symbol
             style="overflow:visible"
             overflow="visible"
             id="textext-23843a60-0">
            <path
               inkscape:connector-curvature="0"
               style="stroke:none"
               d="m 5.359375,-5.9375 c -0.140625,0.140625 -0.46875,0.421875 -0.46875,0.59375 0,0.09375 0.09375,0.203125 0.1875,0.203125 0.09375,0 0.140625,-0.078125 0.203125,-0.140625 C 5.390625,-5.421875 5.625,-5.703125 6.0625,-5.921875 6.125,-5.96875 6.234375,-6.015625 6.234375,-6.125 6.234375,-6.234375 6.15625,-6.28125 6.09375,-6.328125 5.875,-6.484375 5.765625,-6.65625 5.6875,-6.890625 5.65625,-6.984375 5.625,-7.125 5.484375,-7.125 c -0.140625,0 -0.203125,0.140625 -0.203125,0.21875 0,0.046875 0.078125,0.359375 0.234375,0.578125 l -3.359375,0 c -0.15625,0 -0.34375,0 -0.34375,0.203125 0,0.1875 0.1875,0.1875 0.34375,0.1875 z m 0,0"
               id="path4499" />
          </symbol>
          <symbol
             style="overflow:visible"
             overflow="visible"
             id="textext-23843a60-1">
            <path
               inkscape:connector-curvature="0"
               style="stroke:none"
               d="m 3.953125,-3.78125 c -0.171875,0 -0.296875,0 -0.4375,0.125 -0.171875,0.15625 -0.1875,0.328125 -0.1875,0.390625 0,0.25 0.1875,0.359375 0.375,0.359375 0.28125,0 0.546875,-0.25 0.546875,-0.640625 0,-0.484375 -0.46875,-0.859375 -1.171875,-0.859375 -1.34375,0 -2.671875,1.421875 -2.671875,2.828125 0,0.90625 0.578125,1.6875 1.625,1.6875 1.421875,0 2.25,-1.0625 2.25,-1.171875 0,-0.0625 -0.046875,-0.140625 -0.109375,-0.140625 -0.0625,0 -0.078125,0.03125 -0.140625,0.109375 -0.78125,0.984375 -1.875,0.984375 -1.984375,0.984375 -0.625,0 -0.90625,-0.484375 -0.90625,-1.09375 0,-0.40625 0.203125,-1.375 0.546875,-1.984375 0.3125,-0.578125 0.859375,-1 1.40625,-1 0.328125,0 0.71875,0.125 0.859375,0.40625 z m 0,0"
               id="path4502" />
          </symbol>
        </g>
      </defs>
      <g
         id="textext-23843a60-2">
        <g
           style="fill:#000000;fill-opacity:1"
           id="g4505" />
        <g
           style="fill:#000000;fill-opacity:1"
           id="g4509" />
      </g>
    </g>
    <rect
       inkscape:export-ydpi="150"
       inkscape:export-xdpi="150"
       inkscape:export-filename="/home/waldgeist/data/pics/Homepage/mathematik/geometrie/gerade.png"
       style="color:#000000;fill:#ffffff;fill-opacity:1;fill-rule:nonzero;stroke:#ffffff;stroke-width:2.39586639;stroke-linecap:round;stroke-linejoin:bevel;stroke-miterlimit:4;stroke-opacity:1;stroke-dasharray:none;stroke-dashoffset:0;marker:none;visibility:visible;display:inline;overflow:visible;enable-background:accumulate"
       id="rect4674-6"
       width="669.90833"
       height="203.56927"
       x="37.093079"
       y="424.39645"
       ry="2.2183616" />
    <path
       style="fill:none;stroke:#808080;stroke-width:3;stroke-linecap:round;stroke-linejoin:miter;stroke-miterlimit:4;stroke-opacity:1;stroke-dasharray:3, 9;stroke-dashoffset:0;marker-start:none;marker-end:none"
       d="M 124.28118,595.02054 619.81331,457.11948"
       id="path11595"
       inkscape:connector-curvature="0"
       inkscape:export-filename="/home/waldgeist/data/pics/Homepage/mathematik/geometrie/gerade.png"
       inkscape:export-xdpi="150"
       inkscape:export-ydpi="150" />
    <path
       inkscape:export-ydpi="150"
       inkscape:export-xdpi="150"
       inkscape:export-filename="/home/waldgeist/data/pics/Homepage/mathematik/geometrie/gerade.png"
       inkscape:connector-curvature="0"
       id="path2985"
       d="M 211.14014,570.59552 532.95437,481.76663"
       style="fill:none;stroke:#000000;stroke-width:3;stroke-linecap:butt;stroke-linejoin:miter;stroke-opacity:1;marker-start:url(#Arrow2Mstart);marker-end:url(#Arrow2Mend)" />
    <g
       id="g11497"
       style="fill:#000000;stroke:#000000;stroke-width:1"
       transform="matrix(3.3737494,0,0,3.3737494,-369.04158,101.19776)"
       ns0:preamble="/home/waldgeist/data/sphinx/inkscape-preamble.tex"
       ns0:text="$g$"
       inkscape:export-filename="/home/waldgeist/data/pics/Homepage/mathematik/geometrie/gerade.png"
       inkscape:export-xdpi="150"
       inkscape:export-ydpi="150">
      <defs
         id="defs11499">
        <g
           id="g11501">
          <symbol
             id="textext-4735f062-0"
             overflow="visible"
             style="overflow:visible">
            <path
               id="path11504"
               d=""
               style="stroke:none"
               inkscape:connector-curvature="0" />
          </symbol>
          <symbol
             id="textext-4735f062-1"
             overflow="visible"
             style="overflow:visible">
            <path
               id="path11507"
               d="M 4.6875,-3.765625 C 4.703125,-3.8125 4.71875,-3.875 4.71875,-3.9375 c 0,-0.171875 -0.109375,-0.265625 -0.28125,-0.265625 -0.09375,0 -0.375,0.0625 -0.40625,0.421875 -0.1875,-0.359375 -0.53125,-0.625 -0.9375,-0.625 -1.125,0 -2.359375,1.390625 -2.359375,2.828125 0,0.984375 0.59375,1.578125 1.3125,1.578125 0.59375,0 1.0625,-0.46875 1.15625,-0.578125 L 3.21875,-0.5625 C 3.015625,0.3125 2.890625,0.734375 2.890625,0.75 2.84375,0.84375 2.515625,1.828125 1.453125,1.828125 1.265625,1.828125 0.9375,1.8125 0.65625,1.71875 0.953125,1.640625 1.0625,1.375 1.0625,1.203125 c 0,-0.15625 -0.109375,-0.34375 -0.375,-0.34375 -0.21875,0 -0.53125,0.171875 -0.53125,0.578125 0,0.40625 0.359375,0.609375 1.3125,0.609375 1.25,0 1.96875,-0.78125 2.125,-1.375 z M 3.40625,-1.28125 C 3.34375,-1.015625 3.109375,-0.765625 2.890625,-0.578125 2.6875,-0.40625 2.375,-0.21875 2.078125,-0.21875 c -0.5,0 -0.640625,-0.515625 -0.640625,-0.921875 0,-0.46875 0.28125,-1.65625 0.5625,-2.15625 C 2.265625,-3.78125 2.6875,-4.1875 3.109375,-4.1875 c 0.65625,0 0.796875,0.8125 0.796875,0.859375 0,0.046875 -0.015625,0.109375 -0.03125,0.140625 z"
               style="stroke:none"
               inkscape:connector-curvature="0" />
          </symbol>
        </g>
      </defs>
      <g
         id="textext-4735f062-2"
         style="stroke-width:1">
        <g
           id="g11510"
           style="fill:#000000;fill-opacity:1;stroke-width:1">
          <use
             id="use11512"
             y="134.765"
             x="223.43201"
             xlink:href="#textext-4735f062-1"
             width="744.09448"
             height="1052.3622"
             style="stroke-width:1" />
        </g>
      </g>
    </g>
  </g>
</svg>

<svg xmlns:ns0="http://www.iki.fi/pav/software/textext/" xmlns="http://www.w3.org/2000/svg" xmlns:xlink="http://www.w3.org/1999/xlink" width="210mm" height="297mm"><title>Die Gerade</title><defs><marker id="a" orient="auto" overflow="visible"><path transform="scale(.6)" d="M8.719 4.034L-2.207.016 8.719-4.002c-1.746 2.372-1.736 5.618 0 8.036z" fill-rule="evenodd" stroke-width=".625" stroke-linejoin="round"/></marker><marker id="b" orient="auto" overflow="visible"><path transform="rotate(180) scale(.6)" d="M8.719 4.034L-2.207.016 8.719-4.002c-1.746 2.372-1.736 5.618 0 8.036z" fill-rule="evenodd" stroke-width=".625" stroke-linejoin="round"/></marker></defs><rect style="marker:none" width="669.908" height="203.569" x="37.093" y="424.396" ry="2.218" color="#000" fill="#fff" stroke="#fff" stroke-width="2.396" stroke-linecap="round" stroke-linejoin="bevel" overflow="visible"/><path d="M124.281 595.02l495.532-137.9" fill="none" stroke="gray" stroke-width="3" stroke-linecap="round" stroke-dasharray="3,9"/><path d="M211.14 570.596l321.814-88.83" fill="none" stroke="#000" stroke-width="3" marker-start="url(#a)" marker-end="url(#b)"/><g transform="matrix(3.37375 0 0 3.37375 -369.042 101.198)" ns0:preamble="/home/waldgeist/data/sphinx/inkscape-preamble.tex" ns0:text="$g$" stroke="#000"><defs><symbol id="c" overflow="visible"><path d="M4.688-3.766a.562.562 0 0 0 .03-.171c0-.172-.109-.266-.28-.266-.094 0-.375.062-.407.422-.187-.36-.531-.625-.937-.625-1.125 0-2.36 1.39-2.36 2.828C.734-.594 1.328 0 2.047 0c.594 0 1.062-.469 1.156-.578l.016.015C3.016.313 2.89.734 2.89.75c-.047.094-.375 1.078-1.438 1.078a2.68 2.68 0 0 1-.797-.11.542.542 0 0 0 .406-.515C1.063 1.047.954.86.688.86a.546.546 0 0 0-.53.579c0 .406.359.609 1.312.609 1.25 0 1.968-.781 2.125-1.375zM3.405-1.28c-.062.265-.297.515-.515.703-.204.172-.516.36-.813.36-.5 0-.64-.516-.64-.923 0-.468.28-1.656.562-2.156.266-.484.688-.89 1.11-.89.656 0 .796.812.796.859 0 .047-.015.11-.031.14z" stroke="none"/></symbol></defs><use y="134.765" x="223.432" xlink:href="#c" width="744.094" height="1052.362"/></g></svg>
